X:1
T:Bis hierher hat mich Gott gebracht
T:O ewger Gott, wir bitten dich
T:Caspar Querhammer 1537
T:Michael Vehe 1537 (originally e Phrygian) 
%%score [ ( 1 2 ) ( 3 4 ) ] { ( 5 6 ) | ( 7 8 ) }
L:1/8
Q:1/4=66
M:4/4
K:Eb
V:1 treble nm="S A"
V:2 treble 
V:3 bass nm="T B"
V:4 bass 
V:5 treble nm="Organ"
V:6 treble 
V:7 bass 
V:8 bass 
V:1
 G2 | A2 A2 G2[Q:1/4=66] c2 | %2
w: O|ew- ger Gott, wir|
[Q:1/4=65]"^.6" B2[Q:1/4=63]"^.7" A2[Q:1/4=60] !breath!!fermata!G2[Q:1/4=66] B2[Q:1/4=62]"^.1" | %3
w: bit- ten dich, gib|
 c2 d2 e2[Q:1/4=66] c2[Q:1/4=65] | %4
w: Frie- den un- sern|
[Q:1/4=65]"^.6" B2[Q:1/4=63]"^.7" A2[Q:1/4=60] !breath!!fermata!G2[Q:1/4=66] G2 | %5
w: Ta- * gen; gib,|
 A2 A2 G2[Q:1/4=66] c2 | %6
w: dass wir stets ein-|
[Q:1/4=65]"^.6" B3[Q:1/4=64][Q:1/4=63][Q:1/4=62]"^.1" A[Q:1/4=60] !breath!!fermata!G2[Q:1/4=66] B2 | %7
w: mü- tig- lich, nach|
 c2 d2 e2[Q:1/4=66] c2[Q:1/4=65] | %8
w: dei- nem Wil- len|
[Q:1/4=65]"^.7" B2[Q:1/4=65][Q:1/4=64]"^.4" A2[Q:1/4=63][Q:1/4=62][Q:1/4=61]"^.9" !breath!!fermata!G2[Q:1/4=66] B2[Q:1/4=60] | %9
w: fra- * gen, denn,|
 c2 c2 B2[Q:1/4=66] G2 | %10
w: Herr, es ist kein|
[Q:1/4=65]"^.6" A2[Q:1/4=63]"^.7""^Alto drop within chorale" F2[Q:1/4=60] !breath!!fermata!E2[Q:1/4=66] E2 | %11
w: and- rer Gott, der|
 B2 B2 c2[Q:1/4=66] e2 | %12
w: für uns strei- tet|
[Q:1/4=65]"^.6" d2[Q:1/4=63]"^.7" c2[Q:1/4=62][Q:1/4=60] !breath!!fermata!B2[Q:1/4=66] e2 | %13
w: in der Not, als|
 d2 c2 B2[Q:1/4=66] G[Q:1/4=65]"^.9"A | %14
w: du, o Gott, a- *|
[Q:1/4=65]"^.3" B2[Q:1/4=62]"^.2" A2[Q:1/4=56] !fermata!G2[Q:1/4=64]"^.1" |] %15
w: lei- * ne.|
V:2
 =E2 | F2 E2 E2 E2 | E2 F>E ED G2 | G2 G2 G2 F"^.9"E | D2 E2 E2 E2 | E2 E2 E2 E2 | %6
 F"^.9"E"^.7" D2 E2 EF | G3 F EFG"^.9"A | A"^.2"G G"^.3"F/"^.6"E/ D2 E2 | AGFE FE E2 | %10
 E2 D2 B,2 C2 | DEFD C3 G- | G F2"^.1" E D2 EF | G2 G2 F2 EF | G2 FE D2 |] %15
V:3
 C2 | CB,CD CB,A,"^ACP"B, | B,C D>C C=B, _B,2 | E2 D2 D"^Tele-Res.\n"C C2 | F2 E2 B,2 CB, | %5
 A,B,CA, CB,A,G, | F,2 B,2 B,2 ED | C2 =B,2 CD E2 | ED C2- C!fermata!=B, _B,2 | A,B, C2 DEEB, | %10
 A,C/A,/ B,A, G,2 G,A, | B,2 F,2 G,2 G,C | B,2 =A,2 B,2 B,2 | =B,2 CE DC_B,C | %14
"_(perhaps too much)" _D2 C2- C!fermata!=B, |] %15
V:4
 C,2 | F,,G,,A,,B,, C,D,C,A,, | A,,G,,G,,F,, G,,2 E,D, | C,2 =B,,2 C,_B,,A,,=A,, | %4
 B,,D,C,D, E,2 C,2 | C,B,,A,,C, E,D,C,E, | D,C, B,,2 E,2 G,F, | E,2 D,2 C,_B,,A,,C, | %8
 E,2 F,2 G,2 G,2 | F,G, A,2- A,G,E,D, | C,2 B,,2 E,2 C,2 | B,,C,D,B,, E,D,C,E, | %12
 F,2 F,,2 G,,2 G,2 | G,F,E,C, D,F,G,F, | E,=E,F,^F, G,2 |] %15
V:5
 G2 | A2 A2 G2 c2 | B2 A2 !breath!!fermata!G2 B2 | c2 d2 e2 c2 | B2 A2 !breath!!fermata!G2 G2 | %5
 A2 A2 G2 c2 | B3 A !breath!!fermata!G2 B2 | c2 d2 e2 c2 | B2 A2 !breath!!fermata!G2 B2 | %9
 c2 c2 B2 G2 | A2"^Alto drop within chorale" F2 !breath!!fermata!E2 E2 | B2 B2 c2 e2 | %12
 d2 c2 !breath!!fermata!B2 e2 | d2 c2 B2 G A | B2 A2 !fermata!G2 |] %15
V:6
 =E2 | F2 E2 E2 E2 | E2 F3/2 E/ E D G2 | G2 G2 G2 F E | D2 E2 E2 E2 | E2 E2 E2 E2 | F E D2 E2 E F | %7
 G3 F E F G A | A G G F/ E/ D2 E2 | A G F E F E E2 | E2 D2 B,2 C2 | D E F D C3 G- | G F2 E D2 E F | %13
 G2 G2 F2 E F | G2 F E D2 |] %15
V:7
 C2 | C B, C D C B, A,"^ACP" B, | B, C D3/2 C/ C =B, _B,2 | E2 D2 D"^Tele-Res.\n" C C2 | %4
 F2 E2 B,2 C B, | A, B, C A, C B, A, G, | F,2 B,2 B,2 E D | C2 =B,2 C D E2 | %8
 E D C2- C !fermata!=B, _B,2 | A, B, C2 D E E B, | A, C/ A,/ B, A, G,2 G, A, | B,2 F,2 G,2 G, C | %12
 B,2 =A,2 B,2 B,2 | =B,2 C E D C _B, C | _D2 C2- C !fermata!=B, |] %15
V:8
 C,2 | F,, G,, A,, B,, C, D, C, A,, | A,, G,, G,, F,, G,,2 E, D, | C,2 =B,,2 C, _B,, A,, =A,, | %4
 B,, D, C, D, E,2 C,2 | C, B,, A,, C, E, D, C, E, | D, C, B,,2 E,2 G, F, | E,2 D,2 C, _B,, A,, C, | %8
 E,2 F,2 G,2 G,2 | F, G, A,2- A, G, E, D, | C,2 B,,2 E,2 C,2 | B,, C, D, B,, E, D, C, E, | %12
 F,2 F,,2 G,,2 G,2 | G, F, E, C, D, F, G, F, | E, =E, F, ^F, G,2 |] %15

